X:1
T:The Philippine National Anthem
T:Julian Felipe
T:Jose Palma
T:Arranged by Ed Nepomuceno
%%score 1 2 3 4
L:1/8
M:2/4
K:G
V:1 treble nm="Soprano" snm="S."
V:2 treble nm="Alto" snm="A."
V:3 treble-8 nm="Tenor" snm="T."
V:4 bass nm="Bass" snm="B."
V:1
 G2 F>A | G2 D2 | (3ABc B>A | B2 G z | G2 F>A | G2 D2 | (3ABc B>A | G2 z z | G2 F>A | G2 D2 | %10
w: Ba- yang ma-|gi- liw|per- las ng si- la-|nga- nan|a- lab ng|pu- so|sa dib- dib mo'y bu-|hay|Lu- pang hi-|ni- rang|
 (3ABc B>A | B2 G z | G2 F>A | G2 D2 | (3ABc B>A | G2 (3GFG | A>A D>D | A>A D>D | B>c d>e | %19
w: du- yan ka ng ma-|gi- ting|sa man- lu-|lu- pig|di ka pa- si- si-|il Sa da- gat|at bun- dok sa|si- moy at sa|la- ngit mong bug-|
 d2 (3GFG | A>A D>D | A>A D>D | (3BcB (3ABA | G2 (3GFG | A>A D>D | A>A D>D | B>c d>e | d2 (3GFG | %28
w: haw may di- lag|ang tu- la at|aw- it sa pag-|la- yang mi- na- * ma-|hal ang ki- slap|ng wa- ta- wat|mo'y ta- gum- pay|na nag- ni- ning-|ning ang bi- tu-|
 A>A D>D | A>A D>D | (3BcB (3ABA | G2 (3GEG |[K:C] c2 c2 | d2 d2 | e>d c>d | e2 (3fed | e2 c2 | %37
w: in at a- raw|niya kai- lan- pa-|ma'y di mag- di- * di|lim Lu- pa ng|a- raw|ng l'wal-|ha- ti't pag- sin-|ta bu- hay ay|la- ngit|
 d2 B>B | (c4 | c2) (3GEG | c2 c2 | d2 d2 | e>d c>d | e2 (3fed | e2 c2 | d2 B>B | (c4 | c2) z2 |] %48
w: sa pi- ling|mo-|* a- ming li-|ga- ya|na pag|may mang- a- a-|pi ang ma- ma-|tay ng|da- hil sa|'yo!-||
V:2
 D2 D>D | D2 B,2 | (3CDD D>D | D2 B, z | D2 D>D | D2 B,2 | (3CDD D>C | B,2 z z | D2 D>D | D2 B,2 | %10
 (3CDD D>D | D2 B, z | D2 D>D | D2 B,2 | (3CDD D>C | B,2 (3G,F,G, | A,>A, C>C | A,>A, C>C | %18
 G>A B>c | B2 (3B,B,B, | A,>A, C>C | A,>A, C>C | (3DDD (3:2:2D2 D | D2 (3G,F,G, | A,>A, C>C | %25
 A,>A, C>C | G>A B>c | B2 (3B,B,B, | A,>A, C>C | A,>A, C>C | (3DDD (3:2:2D2 D | D2 (3GEG | %32
[K:C] E2 E2 | G2 G2 | c>G E>G | c2 (3AGA | G2 E2 | F2 F>F | (E4 | E2) (3GEG | E2 E2 | G2 G2 | %42
 c>G E>G | c2 (3AGA | G2 E2 | F2 F>F | (E4 | E2) z2 |] %48
V:3
 B2 c>c | B2 G2 | (3DDD F>F | G2 G z | B2 c>c | B2 G2 | (3DDD F>F | G2 z2 | B2 c>c | B2 G2 | %10
w: ||||||||||
w: ||||||||||
 (3DDD F>F | G2 G z | B2 c>c | B2 G2 | (3DDD F>F | G2 (3GFG | D>D F>F | D>D F>D | B>c d>e | %19
w: |||||||||
w: |||||||||
 d2 (3GGG | D>D F>F | D>D F>F | (3BdB (3:2:2c2 c | B2 (3GFG | D>D F>F | D>D F>F | B>c d>e | %27
w: ||||||||
w: ||||||||
 d2 (3GGG | D>D F>F | D>D F>F | (3BdB (3:2:2c2 c | B2 (3GEG |[K:C] c2 c2 | B2 B2 | c>B c>d | %35
w: ||||||||
w: ||||||||
 e2 (3fed | e2 c2 | d2 G>G | (c4 | c2) (3GEG | c2 c2 | B2 B2 | c>B c>d | e2 (3fed | e2 c2 | %45
w: ||||||||||
w: ||||||||||
 d2 G>G | (c4 | c2) z2 |] %48
w: |||
w: | | |
V:4
 G,2 D,>D, | G,,2 D,2 | (3D,D,D, D,>D, | G,,2 D, z | G,2 D,>D, | G,,2 D,2 | (3D,D,D, D,>D, | %7
 G,,2 z2 | G,2 D,>D, | G,,2 D,2 | (3D,D,D, D,>D, | G,,2 D, z | G,2 D,>D, | G,,2 D,2 | %14
 (3D,D,D, D,>D, | G,,2 (3G,F,G, | D,>D, D,>D, | D,>D, D,>D, | G,>D, B,,>D, | G,2 (3B,,B,,B,, | %20
 D,>D, D,>D, | D,>D, D,>D, | (3G,G,G, (3:2:2D,2 D, | G,,2 (3G,F,G, | D,>D, D,>D, | D,>D, D,>D, | %26
 G,>D, B,,>D, | G,2 (3D,D,D, | D,>D, D,>D, | D,>D, D,>D, | (3G,G,G, (3:2:2D,2 D, | G,,2 (3G,E,G, | %32
[K:C] C,2 E,2 | G,2 G,,2 | C,>G, E,>G, | C2 (3F,F,F, | G,2 G,,2 | B,,2 G,,>G,, | (C,4 | %39
 C,2) (3G,E,G, | C,2 E,2 | G,2 G,,2 | C,>G, E,>G, | C2 (3F,F,F, | G,2 G,,2 | B,,2 G,,>G,, | (C,4 | %47
 C,2) z2 |] %48

